X: 1
T: reel des Accord\'eonistes
C: Marcel Messervier
R: reel
Z: 2005 John Chambers <jc:trillian.mit.edu>
M: C|
L: 1/8
K: D
FG \
| "D"A2df "G"edcB | "A7"ABAG "D"F2EF | "Em"GAGF "A7"EBB2 | ABAG "D"FDFG |
| "D"A2df "G"edcB | "A7"ABAG "D"F2EF | "Em"GFEF "A7"GABc | "D"df"A"ec "D"d2 :|
|: "D7"A2 \
| "G"B2{cB}GB d2cB | "D"A2{BA}FA dAFA | "A7"GECE A,ECE | "D"DEFG A2FA |
| "G"B2{cB}GB d2cB | "D"A2{BA}FA d2cd | "A7"efed cBAG | F{G}ABc "D"d2 :|
%%text 3rd part not always used:
|: "D7"d2 \
| "G"dBGd BGdB | "D"FdAF d2cd | "A7"e2d2 (3cdc (3BcB | ABAG Fddd |
| "G"dBGd BGdB | "D"FdAF d2cd | "A7"efed cBAG | F{G}ABc "D"d2 :|
